frontend/public/svg/hand gestures/2-touch-hold.svg

<svg width="147" height="157" viewBox="0 0 147 157" fill="none" xmlns="http://www.w3.org/2000/svg">
<g clip-path="url(#clip0)">
<path d="M109.392 79.9764L109.278 79.5918C108.832 78.0776 108.045 76.6862 106.978 75.5225C105.912 74.3595 104.592 73.4557 103.123 72.8807C98.562 70.9583 94.2899 71.5733 90.4168 74.7053C87.5637 68.5003 82.4692 65.8395 74.8472 66.5818C74.8472 66.2694 74.8517 65.9761 74.8544 65.6964C74.8616 64.9285 74.8675 64.2656 74.8412 63.5995C74.7356 60.9137 74.6378 58.2278 74.5472 55.5416C74.3109 48.8115 74.0661 41.8523 73.6421 35.0165C73.2148 28.125 71.4237 22.4628 68.1683 17.7136C65.3879 13.6574 60.8522 12.539 56.8794 14.932C55.0063 16.0391 53.4213 17.5734 52.254 19.4095C51.2506 21.2036 50.4093 23.0836 49.7401 25.0271C49.492 25.6835 49.2413 26.3397 48.9748 27.0072L48.8476 26.8006C48.4708 26.1836 48.0672 25.524 47.6452 24.8768C45.8763 22.1662 43.2623 20.6106 40.4709 20.6106H40.4498C37.6518 20.6185 35.0384 22.1898 33.2788 24.9208C32.4998 26.0786 31.98 27.391 31.7552 28.7682C31.4553 31.0903 31.2801 33.4624 31.1095 35.7569C31.0254 36.8858 30.9413 38.0153 30.8429 39.1429C29.6614 52.716 30.2524 66.5044 30.8182 79.8359L30.8483 80.5579C30.9015 81.7787 30.8877 83.0159 30.8733 84.3266C30.8694 84.7434 30.8647 85.1687 30.8621 85.6065L30.633 85.4096C30.1768 85.021 29.7796 84.6876 29.3629 84.3837C22.6321 79.534 15.4919 77.8479 8.14025 79.3699C6.56816 79.662 5.094 80.3426 3.85191 81.3494C2.60983 82.3569 1.63924 83.6585 1.02819 85.1359C0.413267 86.6822 0.194658 88.3578 0.392039 90.0105C0.589422 91.6631 1.19665 93.2403 2.15851 94.5983C3.35083 96.2135 4.73545 97.6772 6.2821 98.957L6.61027 99.2511C11.4004 103.444 15.3934 108.469 18.3968 114.082C22.5416 122.014 27.149 130.337 32.8946 140.275C34.2305 142.397 35.9434 144.256 37.9485 145.76C42.2203 149.123 47.0234 151.748 52.16 153.528C56.7032 155.206 61.5086 156.064 66.3522 156.062C72.166 155.993 77.9247 154.918 83.3717 152.883C87.4147 151.381 91.1598 149.173 94.4329 146.364C100.421 141.393 104.585 134.584 107.162 125.548C110.516 113.836 111.951 101.657 111.409 89.4861C111.269 86.2766 110.314 83.0736 109.392 79.9764ZM42.3531 139.512C41.1856 138.707 40.1696 137.701 39.3519 136.542C37.5857 133.917 35.5358 130.776 33.723 127.414C31.2059 122.744 28.7046 117.801 26.2879 112.724C22.0217 103.753 16.718 96.8974 10.0765 91.7655C9.99986 91.7097 9.92779 91.6474 9.86117 91.5798C9.64852 91.356 9.42668 91.1355 9.20484 90.9143C7.9381 89.6593 6.74239 88.4733 7.381 86.4971C8.07213 84.3601 10.0028 84.0076 12.0407 84.0076C12.1398 84.0076 12.2377 84.0076 12.3388 84.0076C19.4889 84.1153 24.829 86.7642 28.2092 91.8837C28.8491 92.9922 29.3207 94.19 29.609 95.4371C29.7075 95.783 29.8059 96.1276 29.9109 96.4669C30.3553 97.9003 31.0787 99.3915 33.0766 99.5825C34.7213 99.744 36.1227 98.5147 36.6701 96.4629C36.9001 95.5657 37.0059 94.6416 36.9845 93.7162C36.8414 85.8742 36.6705 77.7206 36.4755 69.4809C36.4322 67.6431 36.3567 65.7738 36.2839 63.9676C36.1441 60.4818 35.9992 56.8792 36.0753 53.3422C36.2171 46.7342 36.6293 40.0185 37.0277 33.5241L37.1518 31.5072C37.2994 29.0879 37.9052 26.5137 41.244 25.6894C43.4059 27.3217 44.7166 29.6773 45.2515 32.8848C46.1395 38.2149 46.7226 43.0029 47.0343 47.5211C47.4813 54.0064 47.8217 60.6092 48.1499 66.9953C48.3249 70.3591 48.5034 73.7228 48.6855 77.0859C48.7312 77.7947 48.9021 78.4891 49.1902 79.1382C49.4437 79.7985 49.9386 80.338 50.5747 80.6472C51.2107 80.9563 51.9406 81.0127 52.6164 80.804C53.254 80.6938 53.8249 80.3426 54.2118 79.8241C54.5985 79.3056 54.7719 78.6578 54.6957 78.0153C54.678 77.0846 54.6955 76.1329 54.7152 75.212C54.7819 73.5554 54.7486 71.8969 54.6155 70.2442C53.6547 60.7398 54.1896 51.0791 54.7081 41.7401L54.7828 40.3933C54.9797 36.7579 55.2773 33.0981 55.5391 29.9976C55.6959 27.1249 56.6919 24.3613 58.4039 22.0493C59.416 20.7242 60.2671 20.1078 60.9786 20.1669C61.6901 20.226 62.4299 20.9703 63.2155 22.4451C65.6151 26.943 66.2347 31.9056 66.6639 36.6036C67.6662 47.575 67.676 59.1816 66.6961 74.2315C66.6396 75.1057 66.53 75.997 66.4237 76.8568C66.3285 77.6339 66.2268 78.4373 66.1684 79.2341L66.1428 79.5445C66.0227 80.9885 65.8724 82.7855 67.9983 83.5259C69.9377 84.2026 72.5382 83.0914 73.5647 81.1519C73.9342 80.4227 74.1869 79.6404 74.3129 78.8331C74.5203 77.6162 74.6253 76.3692 74.7297 75.1267C74.8668 73.4977 75.3663 72.3767 76.2169 71.7958C77.0452 71.2287 78.2234 71.1664 79.7191 71.6087C82.6399 72.4725 84.4599 74.3785 84.983 77.122C85.2481 78.7274 85.4004 80.3492 85.4391 81.9756C85.4569 82.3491 85.4746 82.7212 85.4949 83.0914C85.5842 84.727 85.9261 86.3173 87.8019 86.8712C89.9902 87.519 91.058 86.0291 91.887 84.5839L92.1253 84.1684C92.838 82.8426 93.6499 81.5726 94.5537 80.3689C96.058 78.4773 97.8531 77.5348 99.4762 77.7822C101.007 78.0153 102.287 79.2741 103.081 81.3265C104.507 84.8149 105.356 88.5114 105.597 92.2722C106.017 102.388 104.168 112.23 102.302 120.524C101.055 125.856 98.7818 130.894 95.6071 135.357C92.1725 140.285 86.9126 143.9 79.9738 146.103C66.9547 150.241 54.2939 148.023 42.3531 139.512Z" fill="black"/>
<path d="M127.714 3.98698C125.125 3.04448 122.025 2.11574 118.707 2.39797C110.83 2.92642 103.442 6.40458 98.0158 12.1387C95.0373 15.2569 92.9318 19.1037 91.9099 23.2929C90.888 27.4821 90.9851 31.8663 92.1934 36.0058C94.6219 44.2225 100.891 50.1006 109.399 52.1326C111.235 52.5432 113.092 52.8578 114.961 53.0752C115.565 53.1546 116.104 53.2248 116.551 53.2957L116.581 53.3003H116.611C124.75 53.1251 130.352 51.7743 135.352 48.7827C141.69 44.9897 145.252 39.2901 145.939 31.842C147.158 18.6168 135.937 6.97659 127.714 3.98698ZM128.998 43.8634C125.332 45.4906 121.379 46.3755 117.369 46.4672C116.882 46.4061 116.394 46.3497 115.906 46.2932C114.867 46.1738 113.792 46.0497 112.748 45.8778C106.267 44.8079 101.468 41.1344 99.2346 35.5345C98.0775 32.4794 97.7126 29.1813 98.1727 25.9472C98.6328 22.7129 99.9034 19.6476 101.867 17.0363C105.345 12.4458 109.715 9.95569 115.229 9.42274L115.598 9.38533C116.011 9.33433 116.426 9.30473 116.842 9.29672C117.158 9.29095 117.473 9.32875 117.779 9.40896C126.941 12.0225 133.042 16.8611 136.43 24.2022C138.263 28.175 138.53 32.1472 137.195 35.6881C135.856 39.2461 133.022 42.0729 128.998 43.8634Z" fill="black"/>
<path d="M79.6785 29.2488C79.416 29.6335 79.2099 30.0534 79.0648 30.4958C78.7144 31.7652 78.5221 33.3253 80.1622 34.1247C80.7825 34.4567 81.5012 34.5566 82.189 34.4065C82.8769 34.2564 83.4886 33.8661 83.9145 33.3057C84.4455 32.6885 84.8931 32.0045 85.2462 31.271C87.6261 26.2533 88.1013 21.4299 86.6593 16.934C84.3293 9.67225 79.2939 4.46809 72.4824 2.28117C68.721 1.13536 64.746 0.873992 60.867 1.51747C56.9881 2.16094 53.31 3.69184 50.1202 5.99077C49.3812 6.59451 48.7256 7.29322 48.1697 8.06875C47.9794 8.31094 47.7888 8.55378 47.5932 8.79072C47.1646 9.30594 46.7756 9.85799 46.5176 10.2236C46.4776 10.28 46.4403 10.3338 46.4055 10.3817C45.2319 10.3416 44.0853 10.2675 42.9748 10.1953C40.5877 9.9718 38.1862 9.94771 35.7951 10.1231C32.6789 10.4634 29.6809 11.5091 27.0291 13.1808C24.3773 14.8526 22.1412 17.1065 20.4904 19.7713C18.8417 22.2743 17.7845 25.1197 17.3991 28.0919C17.0135 31.0642 17.31 34.0853 18.2656 36.926C18.7692 38.3253 19.5175 39.6239 20.476 40.761C20.714 41.0885 21.0202 41.3606 21.3733 41.5586C21.7264 41.7567 22.1183 41.8759 22.5219 41.9082H22.5764C23.0144 41.8785 23.4413 41.7569 23.8292 41.5514C24.217 41.3458 24.5573 41.0607 24.8277 40.715L24.9655 40.5653L24.8998 40.3737C24.7633 39.9891 24.6136 39.6071 24.464 39.2238C24.1185 38.4036 23.836 37.5581 23.6192 36.6949C23.5253 36.2683 23.417 35.8371 23.3087 35.4033C22.8464 33.9464 22.6464 32.4191 22.718 30.8922C22.999 28.2509 23.8859 25.7099 25.3094 23.4673C26.733 21.2246 28.6548 19.3408 30.9255 17.9624C33.0025 16.7134 35.3402 15.9611 37.7558 15.7639C40.1714 15.5667 42.5997 15.9301 44.8518 16.8256C48.5489 18.2932 49.3321 17.6894 51.37 14.2338C52.4202 12.4512 53.5719 10.6429 55.0683 9.82248C63.6664 5.11063 72.3262 6.30648 78.226 13.0254C82.0984 17.4334 82.7712 23.2768 80.027 28.6574C79.9201 28.8563 79.7993 29.0532 79.6785 29.2488Z" fill="black"/>
<path d="M127.652 24.5448C126.456 24.3125 125.235 24.2517 124.023 24.3643L123.569 24.384C122.658 24.4201 121.759 24.5238 120.719 24.6465C120.333 24.6912 119.927 24.7384 119.496 24.785L119.215 21.0472C119.166 20.4276 119.126 19.8074 119.084 19.1865C118.986 17.7045 118.887 16.1719 118.69 14.6715C118.634 13.9641 118.308 13.3053 117.779 12.8323C117.25 12.3593 116.559 12.1085 115.85 12.1321C114.485 12.0987 113.597 12.8449 113.159 14.3552C113.126 14.4694 113.088 14.5842 113.051 14.6991C112.929 15.0285 112.848 15.3714 112.809 15.7204C112.744 16.655 112.669 17.5903 112.597 18.5255C112.386 21.2329 112.167 24.0329 112.1 26.7954C112.037 27.4834 112.124 28.1768 112.355 28.8279C112.585 29.4791 112.955 30.0725 113.437 30.5674C114.302 31.3061 115.416 31.688 116.552 31.6359C116.825 31.6352 117.097 31.6197 117.368 31.5893C119.747 31.3268 122.291 30.9704 125.384 30.4591C126.439 30.3817 127.456 30.0333 128.338 29.4476C128.723 29.0916 129.03 28.6589 129.239 28.1772C129.447 27.6957 129.552 27.1758 129.548 26.651C129.436 26.1683 129.203 25.722 128.871 25.3537C128.54 24.9854 128.12 24.7071 127.652 24.5448Z" fill="black"/>
</g>
<defs>
<clipPath id="clip0">
<rect width="146.363" height="155.552" fill="white" transform="translate(0.0849609 0.667236)"/>
</clipPath>
</defs>
</svg>

<svg xmlns="http://www.w3.org/2000/svg" width="147" height="157" fill="none" viewBox="0 0 147 157"><g fill="#000" clip-path="url(#a)"><path d="m109.392 79.976-.114-.384a10.35 10.35 0 0 0-6.155-6.711c-4.561-1.923-8.833-1.308-12.706 1.824-2.853-6.205-7.948-8.865-15.57-8.123q.002-.468.007-.886a41 41 0 0 0-.013-2.096q-.158-4.029-.294-8.058c-.236-6.73-.48-13.69-.905-20.525-.427-6.892-2.218-12.554-5.474-17.303-2.78-4.057-7.316-5.175-11.289-2.782a13.8 13.8 0 0 0-4.625 4.478 34.6 34.6 0 0 0-2.514 5.617c-.248.656-.499 1.313-.765 1.98l-.127-.206a77 77 0 0 0-1.203-1.924c-1.769-2.71-4.383-4.266-7.174-4.266h-.021c-2.798.008-5.412 1.579-7.171 4.31a9.7 9.7 0 0 0-1.524 3.847c-.3 2.322-.475 4.694-.645 6.989-.085 1.129-.169 2.258-.267 3.386-1.182 13.573-.59 27.361-.025 40.693l.03.722c.053 1.22.04 2.458.025 3.769q-.006.624-.01 1.28l-.23-.197a22 22 0 0 0-1.27-1.026c-6.73-4.85-13.871-6.536-21.223-5.014a9.6 9.6 0 0 0-7.112 5.766 9.99 9.99 0 0 0 1.13 9.462 24.7 24.7 0 0 0 4.124 4.359l.328.294a52.8 52.8 0 0 1 11.787 14.831c4.145 7.932 8.752 16.255 14.498 26.193a20.5 20.5 0 0 0 5.054 5.485 48.8 48.8 0 0 0 14.211 7.768 40.9 40.9 0 0 0 14.192 2.534 50.3 50.3 0 0 0 17.02-3.179 36.5 36.5 0 0 0 11.06-6.519c5.989-4.971 10.153-11.78 12.73-20.816a112.8 112.8 0 0 0 4.247-36.062c-.14-3.21-1.095-6.412-2.017-9.51m-67.039 59.536a12 12 0 0 1-3.001-2.97c-1.766-2.625-3.816-5.766-5.629-9.128a331 331 0 0 1-7.435-14.69c-4.266-8.971-9.57-15.827-16.211-20.958a2 2 0 0 1-.216-.186c-.212-.224-.434-.445-.656-.666-1.267-1.255-2.463-2.44-1.824-4.417.691-2.137 2.622-2.49 4.66-2.49h.298c7.15.108 12.49 2.757 15.87 7.877a13 13 0 0 1 1.4 3.553q.146.52.302 1.03c.444 1.433 1.168 2.924 3.166 3.115 1.644.162 3.046-1.067 3.593-3.12.23-.896.336-1.82.314-2.746a4498 4498 0 0 0-.509-24.235 326 326 0 0 0-.191-5.513c-.14-3.486-.285-7.089-.209-10.626.142-6.608.554-13.323.953-19.818l.124-2.017c.147-2.42.753-4.993 4.092-5.818 2.162 1.633 3.473 3.988 4.008 7.196.887 5.33 1.47 10.118 1.782 14.636.447 6.485.788 13.088 1.116 19.474q.262 5.046.535 10.09a6 6 0 0 0 .505 2.053 2.79 2.79 0 0 0 3.426 1.666 2.53 2.53 0 0 0 2.08-2.789c-.018-.93 0-1.882.02-2.803a41 41 0 0 0-.1-4.968c-.961-9.504-.426-19.165.092-28.504l.075-1.347c.197-3.635.494-7.295.756-10.395a14.7 14.7 0 0 1 2.865-7.949c1.012-1.325 1.863-1.941 2.575-1.882.711.059 1.45.803 2.236 2.278 2.4 4.498 3.02 9.46 3.449 14.159 1.002 10.971 1.012 22.578.032 37.628a46 46 0 0 1-.272 2.625c-.096.777-.197 1.58-.256 2.377l-.025.31c-.12 1.445-.27 3.242 1.855 3.982 1.94.677 4.54-.435 5.567-2.374.37-.73.622-1.512.748-2.319.207-1.217.312-2.464.417-3.706.137-1.63.636-2.75 1.487-3.331.828-.567 2.006-.63 3.502-.187 2.92.864 4.74 2.77 5.264 5.513.265 1.605.417 3.227.456 4.854q.027.56.056 1.115c.09 1.636.431 3.226 2.307 3.78 2.188.648 3.256-.842 4.085-2.287l.238-.416a30 30 0 0 1 2.429-3.8c1.504-1.89 3.3-2.833 4.922-2.586 1.531.233 2.811 1.492 3.605 3.544a34.8 34.8 0 0 1 2.516 10.946c.42 10.116-1.429 19.958-3.295 28.252a42.2 42.2 0 0 1-6.695 14.833c-3.434 4.928-8.694 8.543-15.633 10.746-13.02 4.138-25.68 1.92-37.62-6.591m85.36-135.525c-2.589-.943-5.689-1.871-9.007-1.589a31.38 31.38 0 0 0-20.691 9.74 24.58 24.58 0 0 0-5.823 23.868c2.429 8.216 8.698 14.095 17.206 16.127a54 54 0 0 0 5.562.942c.604.08 1.143.15 1.59.22l.03.005h.03c8.139-.175 13.741-1.526 18.741-4.517 6.338-3.793 9.9-9.493 10.587-16.941 1.219-13.225-10.002-24.865-18.225-27.855m1.284 39.876a30.4 30.4 0 0 1-11.629 2.604q-.73-.09-1.463-.174a66 66 0 0 1-3.158-.415c-6.481-1.07-11.28-4.744-13.513-10.343a19.37 19.37 0 0 1 2.632-18.499c3.478-4.59 7.848-7.08 13.362-7.613l.369-.038q.62-.076 1.244-.088.476-.008.937.112c9.162 2.614 15.263 7.452 18.651 14.793 1.833 3.973 2.1 7.945.765 11.486-1.339 3.558-4.173 6.385-8.197 8.175"/><path d="M79.679 29.249a5 5 0 0 0-.614 1.247c-.35 1.27-.543 2.83 1.097 3.629a2.96 2.96 0 0 0 3.752-.82 9.3 9.3 0 0 0 1.332-2.034c2.38-5.018 2.855-9.841 1.413-14.337-2.33-7.262-7.365-12.466-14.177-14.653a25.53 25.53 0 0 0-22.362 3.71 10.8 10.8 0 0 0-1.95 2.078q-.284.365-.577.722c-.428.515-.817 1.067-1.075 1.433l-.112.158c-1.174-.04-2.32-.114-3.431-.187a43 43 0 0 0-7.18-.072 20.64 20.64 0 0 0-15.305 9.648 19.74 19.74 0 0 0-2.224 17.155 12.5 12.5 0 0 0 2.21 3.835 2.8 2.8 0 0 0 2.046 1.147h.054a3.13 3.13 0 0 0 2.252-1.193l.137-.15-.065-.191a39 39 0 0 0-.436-1.15 17.5 17.5 0 0 1-.845-2.53c-.094-.426-.202-.857-.31-1.29a12.9 12.9 0 0 1-.591-4.512 17.26 17.26 0 0 1 8.208-12.93 15.74 15.74 0 0 1 13.926-1.136c3.697 1.467 4.48.863 6.518-2.592 1.05-1.783 2.202-3.591 3.698-4.412 8.598-4.711 17.258-3.516 23.158 3.203 3.872 4.408 4.545 10.252 1.801 15.632-.107.2-.228.396-.349.592m47.974-4.704a12.8 12.8 0 0 0-3.629-.18l-.454.019c-.911.036-1.81.14-2.85.262q-.578.068-1.223.139l-.281-3.738c-.049-.62-.089-1.24-.131-1.86-.098-1.483-.197-3.015-.394-4.516a2.76 2.76 0 0 0-2.84-2.539c-1.365-.033-2.253.713-2.691 2.223q-.051.172-.108.344-.183.496-.242 1.021c-.065.935-.14 1.87-.212 2.806-.211 2.707-.43 5.507-.497 8.27a4.78 4.78 0 0 0 1.337 3.771 4.48 4.48 0 0 0 3.115 1.069q.41 0 .816-.047c2.379-.262 4.923-.619 8.016-1.13a6.15 6.15 0 0 0 2.954-1.011 3.8 3.8 0 0 0 .901-1.27 3.8 3.8 0 0 0 .309-1.527 2.93 2.93 0 0 0-1.896-2.106"/></g><defs><clipPath id="a"><path fill="#fff" d="M.085.667h146.363V156.22H.085z"/></clipPath></defs></svg>
